X: 75
T: My Own Young Dear   #2
R: air, waltz
%S: s:3 b:13(5+4+4)
B: O'Neill's 1850 #75
Z: 1999 John Chambers <jc@trillian.mit.edu>
N: Compacted via repeats and multiple endings [JC]
Q: "Tenderly"
M: 3/4
L: 1/8
K: D
A GA | (F2 E)D EF | (D2 F)A BG | (F2 E)D [1 GF | E3 :|[2 EF | D3 |]
A BA | (B2d)e fe | d3 e fe | dB AB ee | e3 |]
d/e/ fe | dB AB dA | (F2G)A BG | (F2 E)D EF | D3 |]
